Adwaita++-Dark/actions/16/offline.svg

<svg fill="none" height="16" viewBox="0 0 16 16" width="16" xmlns="http://www.w3.org/2000/svg" xmlns:xlink="http://www.w3.org/1999/xlink">
  <clipPath id="clip0">
    <path d="m0 0h16v16h-16z"/>
  </clipPath>
  <g clip-path="url(#clip0)">
    <path d="m4.94436 12.0556.94285.9429-.94435.9444.9428.9428.94435-.9444.94277.9428.94436-.9444-.94277-.9428.94435-.9443-.9428-.9428-.94435.9443-.94286-.9428z" fill="#e01b24"/>
    <g fill="#e6ddff">
      <path d="m2 2h4v8h-4z"/>
      <path d="m8 2h5v8h-5z"/>
      <path d="m0 5h2v2h-2z"/>
      <path d="m13 5h3v2h-3z"/>
    </g>
  </g>
</svg>

<svg xmlns="http://www.w3.org/2000/svg" fill="none" width="16" height="16" viewBox="0 0 16 16">
 <g clip-path="url(#clip0)">
  <path fill="#E01B24" d="M4.94436 12.0556L5.88721 12.9985L4.94286 13.9429L5.88566 14.8857L6.83001 13.9413L7.77278 14.8841L8.71714 13.9397L7.77437 12.9969L8.71872 12.0526L7.77592 11.1098L6.83157 12.0541L5.88871 11.1113L4.94436 12.0556Z"/>
  <rect fill="#E6DDFF" width="4" height="8" x="2" y="2"/>
  <rect fill="#E6DDFF" width="5" height="8" x="8" y="2"/>
  <rect fill="#E6DDFF" width="2" height="2" y="5"/>
  <rect fill="#E6DDFF" width="3" height="2" x="13" y="5"/>
 </g>
 <defs>
  <clipPath id="clip0">
   <rect fill="#fff" width="16" height="16"/>
  </clipPath>
 </defs>
</svg>
